X:14051
T: Miss Nancy Frowns
C: Thompson (18C)
B: RSCDS 14-5
M: 6/8
L: 1/8
%--------------------
K: G
D \
| "G"GAG G2e | dBG "D7"AFD | "G"GAG G2e | dBG "D7"A2 :|
D \
| "G"GAB d2g | dBG "D7"AFD | "G"GAB d2g | dBG "D7"A2 ||
a \
| "G"bag "D"agf | "C"egc "G"BAG | "D"ABA FED | "D7"EAF "G"G2 |]
